X:1
T:Title
%%score { ( 1 3 ) | ( 2 4 ) }
L:1/8
M:4/4
K:Ab
V:1 treble nm="Grand Piano"
V:3 treble 
V:2 bass 
V:4 bass 
V:1
 z4 z2[Q:1/4=96] [CE]>[CE] | [CA]>[DG] [EA]>B c>d c>[EB] |[M:3/4] [FA]>[FB] [FA]>[DF] [CE]2 | %3
[M:1/4] [A,C]>[CE] |[M:4/4] [CA]>[DG] [EA]>B c2 c2 | z4 B4 | z4 c4 | %7
 [DFA]2 [DFA]>[DF][K:bass] [A,CE]2 [E,A,C]>[K:treble][A,CE] | [CA]>[DG] [EA]>B c2 c2 | z4 B4 | %10
 z4 c4 | [DFA]2 [DFA]>[DF] [A,CE]4 |[M:9/8] [A,EA]3 B c2 [Fd]3 |[M:7/8] [Ec]2 [DB]2 [CA]3 |] %14
V:2
 z4 z2 [A,,A,]>[A,,A,] | %1
 [A,,E,]>[B,,E,] [C,A,]>[E,G,E][K:treble] [A,E]>[A,F][K:bass] [A,E]>[C,A,] | %2
[M:3/4] [D,D]>[D,D] [D,D]>[D,A,] [A,,A,]2 |[M:1/4] [A,,E,]>[A,,A,] | %4
[M:4/4] [A,,E,]>[B,,E,] [C,A,]>[E,G,E] [A,E]2 [A,E]2 | [A,CE]2 [A,E]2 [E,E]4 | %6
 [A,,CE]2 [A,,CE]2 [A,,A,]2 C,2 | z2 D,2 z4 | [A,,E,]>[B,,E,] [C,A,]>[E,G,E] [A,E]2 [A,E]2 | %9
 [A,CE]2 [A,E]2 [E,E]4 | [A,CE]2 [A,CE]2 [A,E]2 C,2 | D,2 z z/ A,/ A,,4 | %12
[M:9/8] C,3 [E,G,E] [A,E]2 [D,A,]3 |[M:7/8] [E,A,]2 [E,G,]2 [A,,A,]3 |] %14
V:3
 x8 | x8 |[M:3/4] x6 |[M:1/4] x2 |[M:4/4] x8 | e2 c2 z2 D2 | e2 e2 E2 [E_G]2 | %7
 x4[K:bass] x7/2[K:treble] x/ | x8 | e2 c2 z2 D2 | e2 e2 z2 [E_G]2 | x8 |[M:9/8] x9 |[M:7/8] x7 |] %14
V:4
 x8 | x4[K:treble] x2[K:bass] x2 |[M:3/4] x6 |[M:1/4] x2 |[M:4/4] x8 | z4 G,2 z2 | x8 | %7
 D,2 z z/ A,/ A,,2 A,,>A,, | x8 | z4 G,2 z2 | x8 | z2 D,2 z4 |[M:9/8] x9 |[M:7/8] x7 |] %14

